raw/symbols/sushi.svg

<svg width="42" height="42" viewBox="0 0 42 42" fill="none" xmlns="http://www.w3.org/2000/svg">
<circle cx="21" cy="21" r="20" fill="#F056A3"/>
<mask id="mask0_7674_310991" style="mask-type:luminance" maskUnits="userSpaceOnUse" x="7" y="7" width="28" height="28">
<path d="M35 7H7V35H35V7Z" fill="white"/>
</mask>
<g mask="url(#mask0_7674_310991)">
<path d="M12.8335 9.68359L34.5335 24.5003L29.1668 32.4336L7.4668 17.5003L12.8335 9.68359Z" fill="#F3F3F3"/>
<path d="M34.5336 24.5004C32.667 27.1838 26.367 26.1338 20.417 21.9338C14.3503 17.8504 11.0836 12.3671 12.8336 9.68375C14.7003 7.00042 21.0003 8.05042 26.9503 12.2504C33.017 16.2171 36.2836 21.8171 34.5336 24.5004Z" fill="#F3F3F3"/>
<path d="M29.1667 32.3163C27.3 34.9996 21 33.9496 15.05 29.7496C9.09999 25.5496 5.71666 20.183 7.58332 17.383C9.44999 14.6996 15.75 15.7496 21.7 19.9496C27.65 24.1496 30.9167 29.633 29.1667 32.3163Z" fill="#F3F3F3"/>
<path d="M12.3671 12.3671C12.3671 12.2505 12.2504 12.1338 12.1337 12.2505C12.0171 12.3671 11.9004 12.3671 11.9004 12.4838C12.0171 12.8338 12.1337 13.0671 12.1337 13.3005C12.1337 13.4171 12.2504 13.5338 12.3671 13.4171C12.4837 13.4171 12.6004 13.3005 12.4837 13.1838C12.4837 12.9505 12.4837 12.7171 12.3671 12.3671Z" fill="#F056A3"/>
<path d="M12.9506 14.2334C12.9506 14.1167 12.8339 14 12.7173 14.1167C12.6006 14.2334 12.6006 14.2334 12.6006 14.35C13.8839 17.2667 16.5673 20.4167 20.0673 22.75C20.1839 22.8667 20.3006 22.75 20.4173 22.75C20.5339 22.6334 20.4173 22.5167 20.4173 22.4C16.8006 20.0667 14.2339 17.0334 12.9506 14.2334Z" fill="#F056A3"/>
<path d="M27.0668 25.667C26.9502 25.667 26.8335 25.667 26.8335 25.7837C26.8335 25.9003 26.8335 26.017 26.9502 26.017C27.3002 26.1337 27.7668 26.2503 28.1168 26.367C28.2335 26.367 28.3502 26.367 28.3502 26.2503C28.3502 26.1337 28.3502 26.017 28.2335 26.017C27.8835 25.9003 27.4168 25.7837 27.0668 25.667Z" fill="#F056A3"/>
<path d="M29.1669 26.1338C29.0503 26.1338 28.9336 26.2505 28.9336 26.3671C28.9336 26.4838 29.0503 26.6005 29.1669 26.6005C30.1003 26.7171 31.1503 26.8338 31.9669 26.7171C32.0836 26.7171 32.2003 26.6005 32.2003 26.4838C32.2003 26.3671 32.0836 26.2505 31.9669 26.2505C31.0336 26.3671 30.1003 26.2505 29.1669 26.1338Z" fill="#F056A3"/>
<path fill-rule="evenodd" clip-rule="evenodd" d="M33.7172 24.0339C32.0839 26.3672 26.3672 25.2005 20.8839 21.3505C15.2839 17.5005 12.0172 12.6005 13.6506 10.2672C15.2839 7.93386 21.0006 9.10052 26.4839 12.9505C31.9672 16.8005 35.2339 21.7005 33.7172 24.0339ZM28.5839 20.5339C27.7672 21.7005 24.9672 21.1172 22.1672 19.2505C19.4839 17.3839 17.8506 14.9339 18.6672 13.7672C19.4839 12.6005 22.2839 13.1839 25.0839 15.0505C27.7672 16.9172 29.4006 19.3672 28.5839 20.5339Z" fill="#F056A3"/>
</g>
</svg>

<svg xmlns="http://www.w3.org/2000/svg" width="42" height="42" fill="none"><circle cx="21" cy="21" r="20" fill="#F056A3"/><mask id="a" width="28" height="28" x="7" y="7" maskUnits="userSpaceOnUse" style="mask-type:luminance"><path fill="#fff" d="M35 7H7v28h28V7Z"/></mask><g mask="url(#a)"><path fill="#F3F3F3" d="m12.834 9.684 21.7 14.816-5.367 7.934L7.467 17.5l5.367-7.816Z"/><path fill="#F3F3F3" d="M34.534 24.5c-1.867 2.684-8.167 1.634-14.117-2.566-6.067-4.084-9.333-9.567-7.583-12.25C14.7 7 21 8.05 26.95 12.25c6.067 3.967 9.334 9.567 7.584 12.25Z"/><path fill="#F3F3F3" d="M29.167 32.316C27.3 35 21 33.95 15.05 29.75c-5.95-4.2-9.333-9.567-7.467-12.367C9.45 14.7 15.75 15.75 21.7 19.95c5.95 4.2 9.217 9.683 7.467 12.366Z"/><path fill="#F056A3" d="M12.367 12.367c0-.117-.117-.233-.233-.117-.117.117-.234.117-.234.234.117.35.234.583.234.816 0 .117.116.234.233.117.117 0 .233-.117.117-.233 0-.233 0-.467-.117-.817ZM12.95 14.233c0-.116-.116-.233-.233-.116-.116.116-.116.116-.116.233 1.283 2.917 3.966 6.067 7.466 8.4.117.117.234 0 .35 0 .117-.117 0-.233 0-.35-3.616-2.333-6.183-5.367-7.466-8.167ZM27.067 25.667c-.117 0-.233 0-.233.117 0 .116 0 .233.116.233.35.117.817.233 1.167.35.116 0 .233 0 .233-.117 0-.116 0-.233-.117-.233-.35-.117-.816-.233-1.166-.35ZM29.167 26.134a.251.251 0 0 0-.233.233c0 .117.116.233.233.233.933.117 1.983.234 2.8.117a.25.25 0 0 0 .233-.233.25.25 0 0 0-.233-.234c-.933.117-1.867 0-2.8-.116Z"/><path fill="#F056A3" fill-rule="evenodd" d="M33.717 24.034c-1.633 2.333-7.35 1.167-12.833-2.683-5.6-3.85-8.867-8.75-7.233-11.084 1.633-2.333 7.35-1.166 12.833 2.684 5.483 3.85 8.75 8.75 7.233 11.083Zm-5.133-3.5c-.817 1.167-3.617.583-6.417-1.284-2.683-1.866-4.316-4.316-3.5-5.483.817-1.166 3.617-.583 6.417 1.284 2.683 1.866 4.317 4.316 3.5 5.483Z" clip-rule="evenodd"/></g></svg>
